X: 38139
T: Sporting Nell
R: reel
M: 4/4
K: Gmajor
AD (3FED A2 dB|ABAG EFGB|AD (3FED A2 dB|ABGE EDDB|
AD (3FED A2 dB|ABAG EFGB|AD (3FED A2 dB|~A2 GE ED D2||
cdec d3 B|cdef gedB|cdec d2 dB|cAGE ED D2|
cdec d3 B|cdef gedf|eaag efed|cAGE ED D2||

